source/img/first-step.svg

<svg width="162" height="90" viewBox="0 0 162 90" fill="none" xmlns="http://www.w3.org/2000/svg">
<mask id="mask0" mask-type="alpha" maskUnits="userSpaceOnUse" x="50" y="0" width="90" height="90">
<path d="M138.944 45.1138C142.898 59.6783 135.456 69.1568 121.502 80.4847C116.386 84.8772 101.874 92.7374 84.7582 89.0384C63.363 84.4148 71.9677 74.474 56.6189 60.603C41.2702 46.7321 55.2236 13.9042 71.9677 6.73756C88.7119 -0.429085 108.247 -3.89682 121.502 6.73756C134.758 17.3719 134.991 30.5493 138.944 45.1138Z" fill="#F4F9FC"/>
</mask>
<g mask="url(#mask0)">
<path d="M138.944 45.1138C142.898 59.6783 135.456 69.1568 121.502 80.4847C116.386 84.8772 101.874 92.7374 84.7582 89.0384C63.363 84.4148 71.9677 74.474 56.6189 60.603C41.2702 46.7321 55.2236 13.9042 71.9677 6.73756C88.7119 -0.429085 108.247 -3.89682 121.502 6.73756C134.758 17.3719 134.991 30.5493 138.944 45.1138Z" fill="#F4FBFF"/>
</g>
<path d="M17.1768 73.3809C13.2412 73.3809 10.2451 72.1621 8.18848 69.7246C6.15723 67.2617 5.1416 63.6689 5.1416 58.9463C5.1416 58.9463 5.1416 58.5273 5.1416 57.6895C5.1416 54.6172 5.66211 51.0752 6.70312 47.0635C7.76953 43.0518 9.01367 39.4717 10.4355 36.3232C11.8828 33.1494 13.5586 30.1914 15.4629 27.4492C17.3926 24.707 19.5 22.3203 21.7852 20.2891C26.7109 15.9473 31.8018 13.7764 37.0576 13.7764C42.6182 13.7764 46.2236 16.4932 47.874 21.9268C48.4326 23.7549 48.7119 25.4941 48.7119 27.1445C48.7119 28.7949 48.623 30.6865 48.4453 32.8193C48.293 34.9268 47.7725 37.6943 46.8838 41.1221C45.9951 44.5244 44.8271 47.7998 43.3799 50.9482C41.9326 54.0713 40.2568 57.0039 38.3525 59.7461C36.4736 62.4883 34.4043 64.875 32.1445 66.9062C27.2949 71.2227 22.3057 73.3809 17.1768 73.3809ZM41.1328 25.0879C41.1328 20.8477 39.5205 18.7275 36.2959 18.7275C33.249 18.7275 29.8848 21.0508 26.2031 25.6973C22.7754 30.0645 19.7793 35.498 17.2148 41.998C14.5488 48.752 13.0127 55.0107 12.6064 60.7744C12.4541 63.1611 12.7969 65.04 13.6348 66.4111C14.4727 67.7568 15.6152 68.4297 17.0625 68.4297C18.5352 68.4297 19.9189 68.0615 21.2139 67.3252C22.5088 66.5635 23.8037 65.5225 25.0986 64.2021C26.4189 62.8818 27.7012 61.333 28.9453 59.5557C30.1895 57.7529 31.3828 55.8105 32.5254 53.7285C33.668 51.6211 34.7217 49.4121 35.6865 47.1016C36.6768 44.791 37.5527 42.4551 38.3145 40.0938C40.1934 34.1777 41.1328 29.4297 41.1328 25.8496V25.0879ZM57.2432 72.3906C56.4307 73.0254 55.6689 73.3428 54.958 73.3428C54.2725 73.3428 53.9297 73 53.9297 72.3145C53.9297 71.8066 54.082 71.1973 54.3867 70.4863C58.5 60.9141 61.2295 54.376 62.5752 50.8721C67.6279 37.1865 70.5605 28.3252 71.373 24.2881C69.3418 26.4463 66.6758 27.8301 63.375 28.4395C62.5625 28.5918 61.877 28.668 61.3184 28.668C60.7598 28.668 60.2773 28.5791 59.8711 28.4014C59.4902 28.2236 59.1729 27.9951 58.9189 27.7158C58.4365 27.1826 58.1953 26.5986 58.1953 25.9639C58.1953 25.3291 58.3984 24.834 58.8047 24.4785C59.2109 24.0977 59.8711 23.7041 60.7852 23.2979C61.7246 22.8916 62.6387 22.3711 63.5273 21.7363C64.4414 21.1016 65.3301 20.4287 66.1934 19.7178L68.7832 17.5469C71.7285 14.957 73.6455 13.6621 74.5342 13.6621C75.4482 13.6621 76.248 13.8145 76.9336 14.1191C77.6191 14.4238 78.2158 14.8174 78.7236 15.2998C79.8662 16.3916 80.4121 17.5723 80.3613 18.8418C80.3105 20.0859 80.0693 21.6855 79.6377 23.6406C79.2314 25.5957 78.6602 27.7539 77.9238 30.1152C77.2129 32.4512 76.375 34.9521 75.4102 37.6182C74.4453 40.2588 73.3789 42.9629 72.2109 45.7305C66.0918 60.4824 61.1025 69.3691 57.2432 72.3906Z" fill="#FF689E"/>
<path d="M117.457 50.707C116.381 50.707 115.843 50.2917 115.843 49.4609C115.843 48.7057 116.117 47.9977 116.664 47.3369C117.646 46.1475 118.41 45.5716 118.958 45.6094H132.042C132.873 45.6094 133.288 45.987 133.288 46.7422C133.288 47.5352 133.014 48.262 132.467 48.9229C131.504 50.1123 130.673 50.707 129.975 50.707H117.457ZM132.25 63.5078C131.42 63.5078 131.004 62.9603 131.004 61.8652C131.004 60.6569 131.524 59.7507 132.562 59.1465L152.245 47.6768L132.024 35.9238C131.363 35.5462 131.033 35.1592 131.033 34.7627C131.033 34.3473 131.099 34.0264 131.231 33.7998C131.363 33.5544 131.542 33.3372 131.769 33.1484C132.222 32.7708 132.751 32.582 133.355 32.582C133.959 32.582 134.488 32.7142 134.941 32.9785L157.795 45.5811C159.325 46.4873 160.089 47.1953 160.089 47.7051C160.089 48.2148 159.513 48.7718 158.362 49.376L133.242 63.2246C132.883 63.4134 132.553 63.5078 132.25 63.5078Z" fill="#AAF0D1"/>
</svg>

<svg width="162" height="90" fill="none" xmlns="http://www.w3.org/2000/svg"><mask id="a" maskUnits="userSpaceOnUse" x="50" y="0" width="90" height="90"><path d="M138.944 45.114c3.954 14.564-3.488 24.043-17.442 35.37-5.116 4.393-19.628 12.253-36.744 8.554-21.395-4.623-12.79-14.564-28.14-28.435-15.348-13.87-1.394-46.699 15.35-53.865 16.744-7.167 36.279-10.635 49.534 0 13.256 10.634 13.489 23.811 17.442 38.376z" fill="#F4F9FC"/></mask><g mask="url(#a)"><path d="M138.944 45.114c3.954 14.564-3.488 24.043-17.442 35.37-5.116 4.393-19.628 12.253-36.744 8.554-21.395-4.623-12.79-14.564-28.14-28.435-15.348-13.87-1.394-46.699 15.35-53.865 16.744-7.167 36.279-10.635 49.534 0 13.256 10.634 13.489 23.811 17.442 38.376z" fill="#F4FBFF"/></g><path d="M17.177 73.38c-3.936 0-6.932-1.218-8.989-3.655-2.03-2.463-3.046-6.056-3.046-10.779V57.69c0-3.073.52-6.615 1.561-10.627 1.067-4.011 2.31-7.591 3.732-10.74a56.916 56.916 0 015.028-8.874c1.93-2.742 4.037-5.129 6.322-7.16 4.926-4.342 10.017-6.513 15.273-6.513 5.56 0 9.166 2.717 10.816 8.15.559 1.829.838 3.568.838 5.219 0 1.65-.089 3.541-.267 5.674-.152 2.108-.672 4.875-1.561 8.303a59.454 59.454 0 01-3.504 9.826 58.536 58.536 0 01-5.028 8.798c-1.878 2.742-3.948 5.129-6.207 7.16-4.85 4.317-9.84 6.475-14.968 6.475zm23.956-48.292c0-4.24-1.613-6.36-4.837-6.36-3.047 0-6.411 2.323-10.093 6.97-3.428 4.366-6.424 9.8-8.988 16.3-2.666 6.754-4.202 13.013-4.609 18.776-.152 2.387.19 4.266 1.029 5.637.838 1.346 1.98 2.019 3.428 2.019a8.265 8.265 0 004.15-1.105c1.296-.761 2.59-1.803 3.886-3.123 1.32-1.32 2.602-2.869 3.846-4.646a67.01 67.01 0 003.58-5.828 72.519 72.519 0 003.162-6.626 80.61 80.61 0 002.628-7.008c1.878-5.916 2.818-10.664 2.818-14.244v-.762zm16.11 47.303c-.812.634-1.574.952-2.285.952-.685 0-1.028-.343-1.028-1.029 0-.507.152-1.117.457-1.828 4.113-9.572 6.843-16.11 8.188-19.614 5.053-13.685 7.986-22.547 8.798-26.584-2.031 2.158-4.697 3.542-7.998 4.151-.813.153-1.498.229-2.057.229-.558 0-1.04-.089-1.447-.267a2.96 2.96 0 01-.952-.685c-.482-.533-.724-1.117-.724-1.752s.203-1.13.61-1.485c.406-.381 1.066-.775 1.98-1.181a14.81 14.81 0 002.742-1.562 40.792 40.792 0 002.666-2.018l2.59-2.171c2.945-2.59 4.862-3.885 5.751-3.885.914 0 1.714.152 2.4.457a6.27 6.27 0 011.79 1.18c1.142 1.093 1.688 2.273 1.637 3.543-.05 1.244-.292 2.844-.723 4.799-.407 1.955-.978 4.113-1.714 6.474a153.4 153.4 0 01-2.514 7.503 178.055 178.055 0 01-3.2 8.112c-6.118 14.752-11.107 23.64-14.967 26.66z" fill="#FF689E"/><path d="M117.457 50.707c-1.076 0-1.614-.415-1.614-1.246 0-.755.274-1.463.821-2.124.982-1.19 1.746-1.765 2.294-1.728h13.084c.831 0 1.246.378 1.246 1.133 0 .793-.274 1.52-.821 2.18-.963 1.19-1.794 1.785-2.492 1.785h-12.518zm14.793 12.8c-.83 0-1.246-.547-1.246-1.642 0-1.208.52-2.114 1.558-2.718l19.683-11.47-20.221-11.753c-.661-.378-.991-.765-.991-1.161 0-.416.066-.737.198-.963a2.402 2.402 0 012.124-1.218c.604 0 1.133.132 1.586.396l22.854 12.603c1.53.906 2.294 1.614 2.294 2.124s-.576 1.067-1.727 1.671l-25.12 13.849c-.359.188-.689.283-.992.283z" fill="#AAF0D1"/></svg>
